X:182
T:Three Scones of Boxty, The
R:reel
H:See also #748
D:Altan: Horse with a Heart
D:Desi Wilkinson: Shady Woods
Z:id:hn-reel-182
M:C|
K:Amix
EF |: GFEd cBAc | BAGB AGEF | GFEd cBAc |1 BAGE EDEF :|2 BAGE EDD2 ||
 |: cded cA~A2 | BG~G2 A2AB |1 cded cA~A2 | BAGE EDD2 :|2 cdef g2ed | cAGE EDEF ||
P:variations
|: GE~E2 cBAB | BAGB A2EF | GE~E2 cBAB |1 BAGE EFD2 :|2 BAGE EFD2 ||
ce~e2 cA~A2 | BAGB A2AB | ceed cAAc | BAGE EFD2 |
ceed cAAc | BAGB A2A2 | (3Bcd ef g2ed | cAGE D2EF ||

